svg/color/cs.svg

<svg height="32" viewBox="0 0 32 32" width="32" xmlns="http://www.w3.org/2000/svg"><g fill="none" fill-rule="evenodd"><circle cx="16" cy="16" fill="#262626" r="16"/><path d="m16.9311313 9.62521437c2.4532136.18104878 3.6426392 1.64446823 3.6426392 1.90897363 0 .1880342-.045082.5956478-.045082.8461539 0 .167004.0601093.4333858.1803279.7991453-.0300547.2507122-.1953552.3760684-.4959016.3760684-.4508197 0-.3237037-.5047309-.9918033-1.5042735-.7199434-1.0771059-1.4481805-1.3032269-2.2947661-1.3506666.0172588 2.2961663.0795083 8.6168042.0853146 10.7912765 2.255564-.3284286 3.5074944-2.0132595 3.8324023-2.0132595.1803279 0 .4057377.1410256.4057377.4700854 0 .6955118-1.7824507 2.2671991-4.2723467 2.5783634-.1857979 2.0287059-1.1460006 4.4729187-3.5268336 4.4729187-1.1270492 0-2.0737705-.8700024-2.0737705-1.8803419 0-.6581196.4959016-.9401709.9467213-.9401709s.9016393.3290598.9016393.9401709c0 .4074074-.1352459.6894587-.4057377.8461539.2704918.1880342.5409836.2820512.8114754.2820512.9016671 0 1.5797734-1.6318018 1.6955804-3.729797-2.6278243-.421803-5.0767279-2.9259099-5.0767279-6.5650747 0-4.0927346 2.5496717-5.8629049 5.0511551-6.25798146.0488977-1.84017591 1.0111222-4.64923743 3.4693367-4.69501004 1.4877049 0 2.1188525 1.22222222 2.1188525 1.88034188s-.4733607.94017094-.9467213.94017094c-.4733607 0-.9467214-.37606838-.9467214-.94017094 0-.37606838.1502733-.64245014.4508197-.7991453-.2103825-.18803419-.4808743-.28205128-.8114754-.28205128-1.2504689 0-1.6427761 2.63820687-1.7041146 3.82606907zm-1.5872957 11.78784063c-.003978-2.4344484-.0346071-8.0431734-.0426996-10.6201305-2.3077599.5675379-3.0675294 3.3134364-3.0675294 5.160067 0 2.9281423 1.3843313 4.9387308 3.110229 5.4600635z" fill="#fff"/></g></svg>

<svg xmlns="http://www.w3.org/2000/svg" width="32" height="32" viewBox="0 0 32 32">
  <g fill="none" fill-rule="evenodd">
    <circle cx="16" cy="16" r="16" fill="#262626"/>
    <path fill="#FFF" d="M16.9311313,9.62521437 C19.3843449,9.80626315 20.5737705,11.2696826 20.5737705,11.534188 C20.5737705,11.7222222 20.5286885,12.1298358 20.5286885,12.3803419 C20.5286885,12.5473459 20.5887978,12.8137277 20.7090164,13.1794872 C20.6789617,13.4301994 20.5136612,13.5555556 20.2131148,13.5555556 C19.7622951,13.5555556 19.8894111,13.0508247 19.2213115,12.0512821 C18.5013681,10.9741762 17.773131,10.7480552 16.9265454,10.7006155 C16.9438042,12.9967818 17.0060537,19.3174197 17.01186,21.491892 C19.267424,21.1634634 20.5193544,19.4786325 20.8442623,19.4786325 C21.0245902,19.4786325 21.25,19.6196581 21.25,19.9487179 C21.25,20.6442297 19.4675493,22.215917 16.9776533,22.5270813 C16.7918554,24.5557872 15.8316527,27 13.4508197,27 C12.3237705,27 11.3770492,26.1299976 11.3770492,25.1196581 C11.3770492,24.4615385 11.8729508,24.1794872 12.3237705,24.1794872 C12.7745902,24.1794872 13.2254098,24.508547 13.2254098,25.1196581 C13.2254098,25.5270655 13.0901639,25.8091168 12.8196721,25.965812 C13.0901639,26.1538462 13.3606557,26.2478632 13.6311475,26.2478632 C14.5328146,26.2478632 15.2109209,24.6160614 15.3267279,22.5180662 C12.6989036,22.0962632 10.25,19.5921563 10.25,15.9529915 C10.25,11.8602569 12.7996717,10.0900866 15.3011551,9.69501004 C15.3500528,7.85483413 16.3122773,5.04577261 18.7704918,5 C20.2581967,5 20.8893443,6.22222222 20.8893443,6.88034188 C20.8893443,7.53846154 20.4159836,7.82051282 19.942623,7.82051282 C19.4692623,7.82051282 18.9959016,7.44444444 18.9959016,6.88034188 C18.9959016,6.5042735 19.1461749,6.23789174 19.4467213,6.08119658 C19.2363388,5.89316239 18.965847,5.7991453 18.6352459,5.7991453 C17.384777,5.7991453 16.9924698,8.43735217 16.9311313,9.62521437 Z M15.3438356,21.413055 C15.3398576,18.9786066 15.3092285,13.3698816 15.301136,10.7929245 C12.9933761,11.3604624 12.2336066,14.1063609 12.2336066,15.9529915 C12.2336066,18.8811338 13.6179379,20.8917223 15.3438356,21.413055 Z"/>
  </g>
</svg>
